src/assets/svgs/refactor/bridge-etherscan.svg

<svg fill="none" height="23" viewBox="0 0 21 23" width="21" xmlns="http://www.w3.org/2000/svg"><g stroke="#000" stroke-linejoin="round" stroke-width="1.5"><path d="m20.0012 16.7409v-10.58405l-9.5631-5.292043-9.5631 5.292043v10.58405l9.5631 5.2921z"/><path d="m.875 6.1568 9.5631 5.292 5.8539-3.23693" stroke-linecap="round"/><path d="m10.4336 11.4489v10.5841"/></g></svg>

<svg width="21" height="23" viewBox="0 0 21 23" fill="none" xmlns="http://www.w3.org/2000/svg">
<path d="M20.0012 16.7409V6.15685L10.4381 0.864807L0.875 6.15685V16.7409L10.4381 22.033L20.0012 16.7409Z" stroke="black" stroke-width="1.5" stroke-linejoin="round"/>
<path d="M0.875 6.1568L10.4381 11.4488L16.292 8.21187" stroke="black" stroke-width="1.5" stroke-linecap="round" stroke-linejoin="round"/>
<path d="M10.4336 11.4489V22.033" stroke="black" stroke-width="1.5" stroke-linejoin="round"/>
</svg>
